X:45
T:Temperance Reel, The
T:Teetotaller's Reel, The
M:C|
E:9
R:reel
K:G
D|G2GF GABc|d2ge dBAc|BEED EFGA|BGAF GFED|*
~G3F GABc|dBge dBAc|BEED EFGA|BGAF G3:|*
A|Beed e3g|fgaf gfed|Bdd^c d3 e|fgafgfed|*
Beed ~e3 g|fgaf gfed|BEED EFGA|BGAF G3:|**
\break
